X: 8536
T: Crested Hens
R: waltz
M: 3/4
K: Edorian
|:"Em"E3 GFE|B4 Bc|"Bm"dc Be dc|dc BA GF|
"Em"E3 GFE|B4 Bc|"Bm"dc BA GA|1 B3 GFD:|2 B4 ef|
"Em"gB Bg gB|"C"=c4 ef|"Am"gf ag fe|"B"^d2 e2 f2|
"Em"gB Bg gB|"C"=c4 ef|"Am"gf ag "Bm"fd|"CM7"e4 ef|
"Em"gB Bg gB|"C"=c4 ef|"Am"gf ag fe|"B"^d2 e2 f2|
"CM7"gB Bg gB|"Am"=c4 ef|"C"gf ag "Bm"fd|"Am"e3 GFD||

